src/assets/icons/biz-money,fancy,tag.svg

<svg width="48" height="48" viewBox="0 0 48 48" fill="none" xmlns="http://www.w3.org/2000/svg">
<g clip-path="url(#clip0_45:396)">
<circle opacity="0.2" cx="37.6025" cy="9.46604" r="3.13725" transform="rotate(45 37.6025 9.46604)" fill="black"/>
<path fill-rule="evenodd" clip-rule="evenodd" d="M21.9493 5.15424C23.4496 3.65395 25.4844 2.81109 27.6061 2.81109L40.2578 2.81109C42.4669 2.81109 44.2578 4.60195 44.2578 6.81109L44.2578 19.4627C44.2578 21.5844 43.4149 23.6193 41.9146 25.1196L23.7933 43.2409C22.2312 44.803 19.6985 44.803 18.1364 43.2409L3.82796 28.9324C2.26587 27.3703 2.26587 24.8376 3.82796 23.2756L21.9493 5.15424ZM39.8211 11.6846C38.596 12.9097 36.6096 12.9097 35.3844 11.6846C34.1592 10.4594 34.1592 8.473 35.3844 7.24783C36.6096 6.02266 38.596 6.02266 39.8211 7.24783C41.0463 8.473 41.0463 10.4594 39.8211 11.6846ZM25.1211 12.7071C25.5116 12.3166 25.5116 11.6834 25.1211 11.2929C24.7305 10.9024 24.0974 10.9024 23.7069 11.2929L10.7069 24.2929C10.3163 24.6834 10.3163 25.3166 10.7069 25.7071C11.0974 26.0976 11.7305 26.0976 12.1211 25.7071L25.1211 12.7071ZM23.1211 22.7071C23.5116 22.3166 23.5116 21.6834 23.1211 21.2929C22.7305 20.9024 22.0974 20.9024 21.7069 21.2929L14.7069 28.2929C14.3163 28.6834 14.3163 29.3166 14.7069 29.7071C15.0974 30.0976 15.7305 30.0976 16.1211 29.7071L23.1211 22.7071Z" fill="black"/>
<g opacity="0.2">
<path fill-rule="evenodd" clip-rule="evenodd" d="M25.1212 11.2929C25.5117 11.6834 25.5117 12.3166 25.1212 12.7071L12.1212 25.7071C11.7306 26.0976 11.0975 26.0976 10.707 25.7071C10.3164 25.3166 10.3164 24.6834 10.707 24.2929L23.707 11.2929C24.0975 10.9024 24.7306 10.9024 25.1212 11.2929Z" fill="black"/>
<path fill-rule="evenodd" clip-rule="evenodd" d="M23.1212 21.2929C23.5117 21.6834 23.5117 22.3166 23.1212 22.7071L16.1212 29.7071C15.7306 30.0976 15.0975 30.0976 14.707 29.7071C14.3164 29.3166 14.3164 28.6834 14.707 28.2929L21.707 21.2929C22.0975 20.9024 22.7306 20.9024 23.1212 21.2929Z" fill="black"/>
</g>
</g>
<defs>
<clipPath id="clip0_45:396">
<rect width="48" height="48" fill="white"/>
</clipPath>
</defs>
</svg>

<svg xmlns="http://www.w3.org/2000/svg" width="48" height="48" fill="none" viewBox="0 0 48 48">
  <g clip-path="url(#clip0_45:396)">
    <circle cx="37.602" cy="9.466" r="3.137" fill="#000" opacity=".2" transform="rotate(45 37.602 9.466)"/>
    <path fill="#000" fill-rule="evenodd" d="M21.95 5.154a8 8 0 015.656-2.343h12.652a4 4 0 014 4v12.652a8 8 0 01-2.343 5.657L23.793 43.24a4 4 0 01-5.657 0L3.828 28.933a4 4 0 010-5.656L21.949 5.154zm17.871 6.53a3.137 3.137 0 11-4.437-4.436 3.137 3.137 0 014.437 4.437zm-14.7 1.023a1 1 0 00-1.414-1.414l-13 13a1 1 0 101.414 1.414l13-13zm-2 10a1 1 0 00-1.414-1.414l-7 7a1 1 0 101.414 1.414l7-7z" clip-rule="evenodd"/>
    <g opacity=".2">
      <path fill="#000" fill-rule="evenodd" d="M25.121 11.293a1 1 0 010 1.414l-13 13a1 1 0 01-1.414-1.414l13-13a1 1 0 011.414 0zM23.121 21.293a1 1 0 010 1.414l-7 7a1 1 0 01-1.414-1.414l7-7a1 1 0 011.414 0z" clip-rule="evenodd"/>
    </g>
  </g>
  <defs>
    <clipPath id="clip0_45:396">
      <path fill="#fff" d="M0 0h48v48H0z"/>
    </clipPath>
  </defs>
</svg>
